X:1
T:Title
%%score 1 { 2 | 3 }
L:1/8
Q:1/4=114
M:3/4
K:C
V:1 treble nm="Grand Piano, Soprano"
V:2 treble nm="Choir Pad, Staffordshire, Ira Sankey"
V:3 bass 
V:1
 [EG]2 [CE]2 [DF]2 | [EG]4 [Gc]2 | [Fe]3 [Fd] [FA][FB] | [EA]2 [EG]4 | [DF]2 [B,D]2 [CE]2 | %5
w: By~Ira~David~Sakey,~1900 * *|||||
 [DF]4 [DB]2 | [DB]3 [CA] [B,G][B,D] | [CE]6 | [EG]2 [CE]2 [DF]2 | [EG]4 [Ec]2 | %10
w: |||||
 [Ge]3 [Ge] [Gf][Ge] | [Ge]2 [Fd]4 | [_Ec]2 [EB]2 [EA]2 | [EG]4 [Ec]2 | [Fd]3 [FA] [FB][FG] | %15
w: |||||
 [Ec]6- | [Ec]2 z2 z2 |] %17
w: ||
V:2
 C2 G,2 G,2 | C4 C2 | B,3 B, DD | C2 C4 | B,2 G,2 G,2 | G,4 G,2 | G,3 G, G,G, | G,6 | C2 G,2 G,2 | %9
 C4 C2 | ^C3 C CC | ^C2 D4 | A,2 B,2 C2 | C4 C2 | B,3 C DB, | G,6- | G,2 z2 z2 |] %17
V:3
 C,2 C,2 C,2 | C,4 E,2 | G,3 G, G,G, | C,2 C,4 | G,,2 G,,2 G,,2 | G,,4 G,,2 | G,,3 G,, G,,G,, | %7
 C,6 | C,2 C,2 C,2 | C,4 z2 | A,3 A, A,A, | D,2 D,4 | ^F,2 F,2 F,2 | G,4 G,2 | G,3 G, G,G, | C,6- | %16
 C,2 z2 z2 |] %17

